img/00top/海.svg

<svg width="185" height="188" viewBox="0 0 185 188" fill="none" xmlns="http://www.w3.org/2000/svg">
<path d="M164.4 94.6C164.933 93.8 165.533 92.8 166.2 91.6C167 90.4 167.667 89.5333 168.2 89C168.733 88.3333 169.267 88 169.8 88C170.6 88 172.2 89.1333 174.6 91.4C177 93.5333 179.267 95.8667 181.4 98.4C183.533 100.933 184.6 102.667 184.6 103.6C184.467 105.733 182.867 106.8 179.8 106.8H159.6C158.533 123.067 157.267 136 155.8 145.6H157.4L161.6 138.4C162.133 137.467 162.8 136.333 163.6 135C164.533 133.667 165.267 132.667 165.8 132C166.333 131.333 166.867 131 167.4 131C168.2 131 169.933 132.267 172.6 134.8C175.267 137.2 177.733 139.8 180 142.6C182.4 145.4 183.6 147.267 183.6 148.2C183.2 150.333 181.533 151.4 178.6 151.4H155.2C152.533 165.667 149.267 174.933 145.4 179.2C142.467 182.267 139 184.467 135 185.8C131.133 187.133 126.6 187.8 121.4 187.8C121.4 182.6 120.2 178.8 117.8 176.4C115.133 173.867 109.133 171.667 99.8 169.8L100 166.6C113.333 167.933 121.667 168.6 125 168.6C126.733 168.6 128.133 168.4 129.2 168C130.267 167.6 131.267 166.933 132.2 166C134.6 163.6 136.467 158.733 137.8 151.4H74.8L73 161.2L72.2 166.2C69.4 167.8 66.6667 168.6 64 168.6C61.7333 168.6 58.4667 168.067 54.2 167C57.9333 148.6 61.4667 128.533 64.8 106.8H57.8C54.0667 106.933 50.2 107.867 46.2 109.6L41 99.4C45.6667 100.2 51.2667 100.733 57.8 101H65.8C67.5333 89.6667 69.5333 75.4 71.8 58.2C64.8667 65.9333 57.8667 72.1333 50.8 76.8L48.6 75C55.2667 66.2 61.4 55.5333 67 43C69.6667 37 72.1333 29.8667 74.4 21.6C76.6667 13.2 78 6.19999 78.4 0.599988C95.6 6.73332 104.2 10.6667 104.2 12.4C104.2 12.8 103.6 13.2667 102.4 13.8L98.6 15C95.9333 21.4 93.0667 27.2667 90 32.6H149.6L154.4 25.4C154.933 24.6 155.667 23.5333 156.6 22.2C157.533 20.8667 158.267 19.8667 158.8 19.2C159.467 18.5333 160.067 18.2 160.6 18.2C161.4 18.2 163.267 19.4667 166.2 22C169.267 24.4 172.067 27 174.6 29.8C177.267 32.4667 178.6 34.2667 178.6 35.2C178.2 37.3333 176.467 38.4 173.4 38.4H86.6C84.2 42.5333 81.1333 46.9333 77.4 51.6L92.2 58.6H142.6L146.8 53.4C147.333 52.8667 148 52.1333 148.8 51.2C149.733 50.1333 150.467 49.4 151 49C151.533 48.4667 152.067 48.2 152.6 48.2C153.4 48.2 155.133 49.3333 157.8 51.6C160.6 53.7333 163.2 56.0667 165.6 58.6C168 61.1333 169.2 62.8667 169.2 63.8C167.733 65.5333 165 66.6667 161 67.2L160.6 77.4C160.333 87.9333 160.067 95.8 159.8 101H160.4L164.4 94.6ZM16.6 4.19999C27.5333 6.06666 35.6 9.19999 40.8 13.6C46 18 48.6 22.5333 48.6 27.2C48.6 29.8667 47.7333 32.1333 46 34C44.4 35.8667 42.3333 36.8 39.8 36.8C37.6667 36.8 35.4 36 33 34.4C31.9333 29.7333 29.6667 24.8 26.2 19.6C22.7333 14.4 19 9.73332 15 5.6L16.6 4.19999ZM11.8 129C13.1333 129 14.0667 128.8 14.6 128.4C15.1333 128 15.8667 126.867 16.8 125C18.6667 121.267 22.0667 113.467 27 101.6C32.0667 89.7333 40.9333 68.3333 53.6 37.4L57 38.4C52.6 52.6667 47.8 68.4667 42.6 85.8C37.5333 103 34.4 114 33.2 118.8C31.3333 125.6 30.4 131.667 30.4 137C30.4 139.4 30.7333 141.933 31.4 144.6C32.2 147.133 32.6667 148.667 32.8 149.2C34 152.933 34.9333 156.667 35.6 160.4C36.2667 164 36.5333 168.067 36.4 172.6C36.2667 177.267 35 180.933 32.6 183.6C30.3333 186.4 27.2667 187.8 23.4 187.8C21.2667 187.8 19.4667 186.933 18 185.2C16.6667 183.6 15.7333 181.133 15.2 177.8C16.4 169.533 17 162.133 17 155.6C17 150.4 16.6 146.133 15.8 142.8C15.1333 139.333 14.1333 137.133 12.8 136.2C10.8 134.467 7.66667 133.4 3.4 133V129H11.8ZM2.4 50.2C12.9333 51.8 20.6667 54.7333 25.6 59C30.6667 63.1333 33.2 67.5333 33.2 72.2C33.2 74.8667 32.3333 77.1333 30.6 79C29 80.7333 26.9333 81.6 24.4 81.6C22 81.6 19.7333 80.8 17.6 79.2C16.8 74.6667 14.7333 69.8 11.4 64.6C8.2 59.4 4.66667 55.1333 0.8 51.8L2.4 50.2ZM104.4 101C106.133 86.4667 107.4 74.2667 108.2 64.4H88.2C87.9333 66.8 86.7333 75.4667 84.6 90.4L83 101H104.4ZM143 101C143.8 87.2667 144.333 75.0667 144.6 64.4H124L123 75.2C122.333 83.8667 121.533 92.4667 120.6 101H143ZM98.6 145.6C100.867 130 102.6 117.067 103.8 106.8H82.2L79.4 123.4L75.8 145.6H98.6ZM120 106.8L118.4 120.4C116.933 134.8 116 143.2 115.6 145.6H138.8C140.133 138 141.4 125.067 142.6 106.8H120Z" fill="black"/>
</svg>

<svg width="185" height="188" fill="none" xmlns="http://www.w3.org/2000/svg"><path d="M164.4 94.6c.533-.8 1.133-1.8 1.8-3 .8-1.2 1.467-2.067 2-2.6.533-.667 1.067-1 1.6-1 .8 0 2.4 1.133 4.8 3.4a67.597 67.597 0 0 1 6.8 7c2.133 2.533 3.2 4.267 3.2 5.2-.133 2.133-1.733 3.2-4.8 3.2h-20.2c-1.067 16.267-2.333 29.2-3.8 38.8h1.6l4.2-7.2c.533-.933 1.2-2.067 2-3.4.933-1.333 1.667-2.333 2.2-3 .533-.667 1.067-1 1.6-1 .8 0 2.533 1.267 5.2 3.8 2.667 2.4 5.133 5 7.4 7.8 2.4 2.8 3.6 4.667 3.6 5.6-.4 2.133-2.067 3.2-5 3.2h-23.4c-2.667 14.267-5.933 23.533-9.8 27.8-2.933 3.067-6.4 5.267-10.4 6.6-3.867 1.333-8.4 2-13.6 2 0-5.2-1.2-9-3.6-11.4-2.667-2.533-8.667-4.733-18-6.6l.2-3.2c13.333 1.333 21.667 2 25 2 1.733 0 3.133-.2 4.2-.6 1.067-.4 2.067-1.067 3-2 2.4-2.4 4.267-7.267 5.6-14.6h-63l-1.8 9.8-.8 5c-2.8 1.6-5.533 2.4-8.2 2.4-2.267 0-5.533-.533-9.8-1.6 3.733-18.4 7.267-38.467 10.6-60.2h-7c-3.733.133-7.6 1.067-11.6 2.8L41 99.4c4.667.8 10.267 1.333 16.8 1.6h8c1.733-11.333 3.733-25.6 6-42.8-6.933 7.733-13.933 13.933-21 18.6L48.6 75c6.667-8.8 12.8-19.467 18.4-32 2.667-6 5.133-13.133 7.4-21.4 2.267-8.4 3.6-15.4 4-21 17.2 6.133 25.8 10.067 25.8 11.8 0 .4-.6.867-1.8 1.4L98.6 15c-2.667 6.4-5.533 12.267-8.6 17.6h59.6l4.8-7.2c.533-.8 1.267-1.867 2.2-3.2.933-1.333 1.667-2.333 2.2-3 .667-.667 1.267-1 1.8-1 .8 0 2.667 1.267 5.6 3.8 3.067 2.4 5.867 5 8.4 7.8 2.667 2.667 4 4.467 4 5.4-.4 2.133-2.133 3.2-5.2 3.2H86.6c-2.4 4.133-5.467 8.533-9.2 13.2l14.8 7h50.4l4.2-5.2a40.63 40.63 0 0 0 2-2.2c.933-1.067 1.667-1.8 2.2-2.2.533-.533 1.067-.8 1.6-.8.8 0 2.533 1.133 5.2 3.4 2.8 2.133 5.4 4.467 7.8 7 2.4 2.533 3.6 4.267 3.6 5.2-1.467 1.733-4.2 2.867-8.2 3.4l-.4 10.2c-.267 10.533-.533 18.4-.8 23.6h.6l4-6.4ZM16.6 4.2c10.933 1.867 19 5 24.2 9.4 5.2 4.4 7.8 8.933 7.8 13.6 0 2.667-.867 4.933-2.6 6.8-1.6 1.867-3.667 2.8-6.2 2.8-2.133 0-4.4-.8-6.8-2.4-1.067-4.667-3.333-9.6-6.8-14.8-3.467-5.2-7.2-9.867-11.2-14l1.6-1.4ZM11.8 129c1.333 0 2.267-.2 2.8-.6.533-.4 1.267-1.533 2.2-3.4 1.867-3.733 5.267-11.533 10.2-23.4 5.067-11.867 13.933-33.267 26.6-64.2l3.4 1c-4.4 14.267-9.2 30.067-14.4 47.4-5.067 17.2-8.2 28.2-9.4 33-1.867 6.8-2.8 12.867-2.8 18.2 0 2.4.333 4.933 1 7.6.8 2.533 1.267 4.067 1.4 4.6a85.96 85.96 0 0 1 2.8 11.2c.667 3.6.933 7.667.8 12.2-.133 4.667-1.4 8.333-3.8 11-2.267 2.8-5.333 4.2-9.2 4.2-2.133 0-3.933-.867-5.4-2.6-1.333-1.6-2.267-4.067-2.8-7.4 1.2-8.267 1.8-15.667 1.8-22.2 0-5.2-.4-9.467-1.2-12.8-.667-3.467-1.667-5.667-3-6.6-2-1.733-5.133-2.8-9.4-3.2v-4h8.4ZM2.4 50.2c10.533 1.6 18.267 4.533 23.2 8.8 5.067 4.133 7.6 8.533 7.6 13.2 0 2.667-.867 4.933-2.6 6.8-1.6 1.733-3.667 2.6-6.2 2.6-2.4 0-4.667-.8-6.8-2.4-.8-4.533-2.867-9.4-6.2-14.6C8.2 59.4 4.667 55.133.8 51.8l1.6-1.6Zm102 50.8c1.733-14.533 3-26.733 3.8-36.6h-20c-.267 2.4-1.467 11.067-3.6 26L83 101h21.4Zm38.6 0c.8-13.733 1.333-25.933 1.6-36.6H124l-1 10.8a807.367 807.367 0 0 1-2.4 25.8H143Zm-44.4 44.6c2.267-15.6 4-28.533 5.2-38.8H82.2l-2.8 16.6-3.6 22.2h22.8Zm21.4-38.8-1.6 13.6c-1.467 14.4-2.4 22.8-2.8 25.2h23.2c1.333-7.6 2.6-20.533 3.8-38.8H120Z" fill="#000"/></svg>
